svg/set/RVR/WM.svg

<?xml version="1.0" encoding="UTF-8"?>
<svg id="Layer_2" data-name="Layer 2" xmlns="http://www.w3.org/2000/svg" viewBox="0 0 889.57 978.73">
  <defs>
    <style>
      .cls-1 {
        fill-rule: evenodd;
        stroke-width: 0px;
      }
    </style>
  </defs>
  <g id="Layer_1-2" data-name="Layer 1">
    <g id="WM">
      <path class="cls-1" d="M889.55,740.9c-17.04-47.16-55.38-46.76-55.38-46.76-30.41-74.16-88.47-67.31-88.47-67.31l-42.48-53.81-42.26,53.49c-67.21,1.68-88.56,67.17-88.56,67.17l.06,47.23h-.06v-140.04h.01v-155.11h168.11l58.75,70.86,58.75-70.86h0v-80.96h0v-109.92l-59.4-80.46-59.4,80.46v109.92h-166.8v-120.67h39.61L474.61,0l-136.19,244.13h38.14v232.82h-108.09l-71.67-312.01-71.2,312.01h-52.45v38.1H0v463.68h572.42v-.14h317.15v-237.67h0l-.02-.02ZM197.11,625.14c-26.75,0-48.43-21.9-48.43-48.93s21.68-48.92,48.43-48.92,48.43,21.9,48.43,48.92-21.68,48.93-48.43,48.93ZM474.95,457.06c-26.75,0-48.43-21.9-48.43-48.92s21.68-48.92,48.43-48.92,48.43,21.9,48.43,48.92-21.68,48.92-48.43,48.92ZM703.57,807.76c-26.75,0-48.43-21.9-48.43-48.93s21.68-48.92,48.43-48.92,48.43,21.9,48.43,48.92-21.68,48.93-48.43,48.93Z"/>
    </g>
  </g>
</svg>

<?xml version="1.0" encoding="UTF-8" standalone="no"?>
<svg
   id="Layer_2"
   data-name="Layer 2"
   viewBox="0 0 889.57 978.73"
   version="1.1"
   width="889.57001"
   height="978.72998"
   xmlns="http://www.w3.org/2000/svg"
   xmlns:svg="http://www.w3.org/2000/svg">
  <defs
     id="defs1">
    <style
       id="style1">
      .cls-1 {
        fill-rule: evenodd;
        stroke-width: 0px;
      }
    </style>
  </defs>
  <g
     id="Layer_1-2"
     data-name="Layer 1">
    <g
       id="WM">
      <path
         class="cls-1"
         d="M 889.55,740.9 C 872.51,693.74 834.17,694.14 834.17,694.14 803.76,619.98 745.7,626.83 745.7,626.83 l -42.48,-53.81 -42.26,53.49 c -67.21,1.68 -88.56,67.17 -88.56,67.17 l 0.06,47.23 H 572.4 V 600.87 h 0.01 V 445.76 h 168.11 l 58.75,70.86 58.75,-70.86 v 0 -80.96 0 -109.92 l -59.4,-80.46 -59.4,80.46 V 364.8 H 572.42 V 244.13 h 39.61 L 474.61,0 338.42,244.13 h 38.14 V 476.95 H 268.47 L 196.8,164.94 125.6,476.95 H 73.15 v 38.1 H 0 v 463.68 h 572.42 v -0.14 h 317.15 v -237.67 0 z M 197.11,625.14 c -26.75,0 -48.43,-21.9 -48.43,-48.93 0,-27.03 21.68,-48.92 48.43,-48.92 26.75,0 48.43,21.9 48.43,48.92 0,27.02 -21.68,48.93 -48.43,48.93 z M 474.95,457.06 c -26.75,0 -48.43,-21.9 -48.43,-48.92 0,-27.02 21.68,-48.92 48.43,-48.92 26.75,0 48.43,21.9 48.43,48.92 0,27.02 -21.68,48.92 -48.43,48.92 z m 228.62,350.7 c -26.75,0 -48.43,-21.9 -48.43,-48.93 0,-27.03 21.68,-48.92 48.43,-48.92 26.75,0 48.43,21.9 48.43,48.92 0,27.02 -21.68,48.93 -48.43,48.93 z"
         id="path1" />
    </g>
  </g>
</svg>
